button-pointer.svg

<svg fill="currentColor" viewBox="0 0 24 24"><path d="M20 20.5c0 .8-.7 1.5-1.5 1.5H13c-.4 0-.7-.1-1-.4l-4-4.2.7-.8c.2-.2.5-.3.8-.3h.2L12 18V9c0-.6.4-1 1-1s1 .4 1 1v4.5l1.2.1 3.9 2.2c.5.2.9.8.9 1.3zM20 2H4c-1.1 0-2 .9-2 2v8c0 1.1.9 2 2 2h4v-2H4V4h16v8h-2v2h2c1.1 0 2-.9 2-2V4c0-1.1-.9-2-2-2"/></svg>

<svg  viewBox="0 0 24 24" fill="currentColor"><path  d="M20 20.5C20 21.3 19.3 22 18.5 22H13C12.6 22 12.3 21.9 12 21.6L8 17.4L8.7 16.6C8.9 16.4 9.2 16.3 9.5 16.3H9.7L12 18V9C12 8.4 12.4 8 13 8S14 8.4 14 9V13.5L15.2 13.6L19.1 15.8C19.6 16 20 16.6 20 17.1V20.5M20 2H4C2.9 2 2 2.9 2 4V12C2 13.1 2.9 14 4 14H8V12H4V4H20V12H18V14H20C21.1 14 22 13.1 22 12V4C22 2.9 21.1 2 20 2Z"/></svg>
